modules/hawcons-filled/icons/icon-58-file-wav.svg

<?xml version="1.0" encoding="UTF-8" standalone="no"?>
<svg width="32px" height="32px" viewBox="0 0 32 32" version="1.1" xmlns="http://www.w3.org/2000/svg" xmlns:xlink="http://www.w3.org/1999/xlink" xmlns:sketch="http://www.bohemiancoding.com/sketch/ns">
    <!-- Generator: Sketch 3.0.3 (7891) - http://www.bohemiancoding.com/sketch -->
    <title>icon 58 file wav</title>
    <desc>Created with Sketch.</desc>
    <defs></defs>
    <g id="Page-1" stroke="none" stroke-width="1" fill="none" fill-rule="evenodd" sketch:type="MSPage">
        <g id="icon-58-file-wav" sketch:type="MSArtboardGroup" fill="#929292">
            <path d="M8.00684834,10 C6.34621185,10 5,11.3422643 5,12.9987856 L5,20.0012144 C5,21.6573979 6.33599155,23 8.00684834,23 L24.9931517,23 C26.6537881,23 28,21.6577357 28,20.0012144 L28,12.9987856 C28,11.3426021 26.6640085,10 24.9931517,10 L8.00684834,10 L8.00684834,10 Z M12.5,20 L12,20 L10.5,17 L9,20 L8.5,20 L8,20 L8,13 L9,13 L9,18 L10,16 L10.5,16 L11,16 L12,18 L12,13 L13,13 L13,20 L12.5,20 L12.5,20 Z M18,17 L15,17 L15,20 L14,20 L14,16.5 L14,15 C14,13.8877296 14.897616,13 16.0048815,13 L16.9951185,13 C18.1061002,13 19,13.8954305 19,15 L19,17 L19,20 L18,20 L18,17 L18,17 Z M15.9989566,14 C15.4472481,14 15,14.4438648 15,15 L15,16 L18,16 L18,15 C18,14.4477153 17.5573397,14 17.0010434,14 L15.9989566,14 L15.9989566,14 Z M22.5,18.25 L24,13 L25,13 L23,20 L22.5,20 L22,20 L20,13 L21,13 L22.5,18.25 L22.5,18.25 Z" id="file-wav" sketch:type="MSShapeGroup"></path>
        </g>
    </g>
</svg>

<svg width="32" height="32" xmlns="http://www.w3.org/2000/svg"><path d="M8.007 10A3.003 3.003 0 0 0 5 12.999V20A2.996 2.996 0 0 0 8.007 23h16.986A3.003 3.003 0 0 0 28 20.001V13A2.996 2.996 0 0 0 24.993 10H8.007zM12.5 20H12l-1.5-3L9 20H8v-7h1v5l1-2h1l1 2v-5h1v7h-.5zm5.5-3h-3v3h-1v-5c0-1.112.898-2 2.005-2h.99A2 2 0 0 1 19 15v5h-1v-3zm-2.001-3A.997.997 0 0 0 15 15v1h3v-1c0-.552-.443-1-.999-1h-1.002zm6.501 4.25L24 13h1l-2 7h-1l-2-7h1l1.5 5.25z" fill="#929292" fill-rule="evenodd"/></svg>
